images/16757846.svg

<?xml version="1.0" encoding="UTF-8"?>
<svg xmlns="http://www.w3.org/2000/svg" xmlns:xlink="http://www.w3.org/1999/xlink" width="300pt" height="300pt" viewBox="0 0 300 300" version="1.1">
<defs>
<g>
<symbol overflow="visible" id="glyph0-0">
<path style="stroke:none;" d="M 0.796875 2.828125 L 0.796875 -11.28125 L 8.796875 -11.28125 L 8.796875 2.828125 Z M 1.703125 1.9375 L 7.90625 1.9375 L 7.90625 -10.390625 L 1.703125 -10.390625 Z M 1.703125 1.9375 "/>
</symbol>
<symbol overflow="visible" id="glyph0-1">
<path style="stroke:none;" d="M 6.3125 -10.59375 C 5.164062 -10.59375 4.253906 -10.164062 3.578125 -9.3125 C 2.898438 -8.457031 2.5625 -7.296875 2.5625 -5.828125 C 2.5625 -4.359375 2.898438 -3.195312 3.578125 -2.34375 C 4.253906 -1.488281 5.164062 -1.0625 6.3125 -1.0625 C 7.457031 -1.0625 8.363281 -1.488281 9.03125 -2.34375 C 9.695312 -3.195312 10.03125 -4.359375 10.03125 -5.828125 C 10.03125 -7.296875 9.695312 -8.457031 9.03125 -9.3125 C 8.363281 -10.164062 7.457031 -10.59375 6.3125 -10.59375 Z M 6.3125 -11.875 C 7.945312 -11.875 9.253906 -11.328125 10.234375 -10.234375 C 11.210938 -9.140625 11.703125 -7.671875 11.703125 -5.828125 C 11.703125 -3.984375 11.210938 -2.507812 10.234375 -1.40625 C 9.253906 -0.3125 7.945312 0.234375 6.3125 0.234375 C 4.664062 0.234375 3.351562 -0.3125 2.375 -1.40625 C 1.394531 -2.507812 0.90625 -3.984375 0.90625 -5.828125 C 0.90625 -7.671875 1.394531 -9.140625 2.375 -10.234375 C 3.351562 -11.328125 4.664062 -11.875 6.3125 -11.875 Z M 6.3125 -11.875 "/>
</symbol>
</g>
</defs>
<g id="surface49721">
<rect x="0" y="0" width="300" height="300" style="fill:rgb(100%,100%,100%);fill-opacity:1;stroke:none;"/>
<path style="fill:none;stroke-width:1;stroke-linecap:butt;stroke-linejoin:miter;stroke:rgb(0%,0%,0%);stroke-opacity:1;stroke-miterlimit:10;" d="M 156.949219 169.125 L 156.949219 169.125 M 156.425781 172.078125 L 157.46875 172.078125 M 155.90625 175.035156 L 157.992188 175.035156 M 155.382812 177.988281 L 158.511719 177.988281 M 154.863281 180.941406 L 159.03125 180.941406 M 154.339844 183.898438 L 159.554688 183.898438 M 153.820312 186.851562 L 160.074219 186.851562 M 153.296875 189.804688 L 160.597656 189.804688 M 152.777344 192.761719 L 161.117188 192.761719 M 152.253906 195.714844 L 161.640625 195.714844 M 151.734375 198.667969 L 162.160156 198.667969 M 151.210938 201.621094 L 162.683594 201.621094 M 150.691406 204.578125 L 163.203125 204.578125 M 150.199219 207.375 L 163.699219 207.375 "/>
<path style="fill:none;stroke-width:1.2;stroke-linecap:butt;stroke-linejoin:miter;stroke:rgb(0%,0%,0%);stroke-opacity:1;stroke-miterlimit:10;" d="M 156.949219 169.125 L 120.570312 180.945312 "/>
<path style="fill:none;stroke-width:1.2;stroke-linecap:butt;stroke-linejoin:miter;stroke:rgb(0%,0%,0%);stroke-opacity:1;stroke-miterlimit:10;" d="M 156.949219 130.875 L 156.949219 169.125 "/>
<path style="fill:none;stroke-width:1.2;stroke-linecap:butt;stroke-linejoin:miter;stroke:rgb(0%,0%,0%);stroke-opacity:1;stroke-miterlimit:10;" d="M 193.324219 180.945312 L 156.949219 169.125 "/>
<path style="fill:none;stroke-width:1.2;stroke-linecap:butt;stroke-linejoin:miter;stroke:rgb(0%,0%,0%);stroke-opacity:1;stroke-miterlimit:10;" d="M 120.570312 180.945312 L 84.191406 169.125 "/>
<path style="fill:none;stroke-width:1.2;stroke-linecap:butt;stroke-linejoin:miter;stroke:rgb(100%,0%,0%);stroke-opacity:1;stroke-miterlimit:10;" d="M 143.050781 150 L 131.8125 165.472656 "/>
<path style="fill:none;stroke-width:1.2;stroke-linecap:butt;stroke-linejoin:miter;stroke:rgb(0%,0%,0%);stroke-opacity:1;stroke-miterlimit:10;" d="M 131.8125 165.472656 L 120.570312 180.945312 "/>
<path style="fill:none;stroke-width:1.2;stroke-linecap:butt;stroke-linejoin:miter;stroke:rgb(0%,0%,0%);stroke-opacity:1;stroke-miterlimit:10;" d="M 84.191406 169.125 L 84.191406 130.875 "/>
<path style="fill:none;stroke-width:1.2;stroke-linecap:butt;stroke-linejoin:miter;stroke:rgb(0%,0%,0%);stroke-opacity:1;stroke-miterlimit:10;" d="M 84.191406 130.875 L 120.570312 119.054688 "/>
<path style="fill:none;stroke-width:1.2;stroke-linecap:butt;stroke-linejoin:miter;stroke:rgb(0%,0%,0%);stroke-opacity:1;stroke-miterlimit:10;" d="M 120.570312 119.054688 L 156.949219 130.875 "/>
<path style="fill:none;stroke-width:1.2;stroke-linecap:butt;stroke-linejoin:miter;stroke:rgb(0%,0%,0%);stroke-opacity:1;stroke-miterlimit:10;" d="M 120.570312 119.054688 L 131.8125 134.527344 "/>
<path style="fill:none;stroke-width:1.2;stroke-linecap:butt;stroke-linejoin:miter;stroke:rgb(100%,0%,0%);stroke-opacity:1;stroke-miterlimit:10;" d="M 131.8125 134.527344 L 143.050781 150 "/>
<path style="fill:none;stroke-width:1.2;stroke-linecap:butt;stroke-linejoin:miter;stroke:rgb(0%,0%,0%);stroke-opacity:1;stroke-miterlimit:10;" d="M 156.949219 130.875 L 193.324219 119.054688 "/>
<path style=" stroke:none;fill-rule:nonzero;fill:rgb(0%,0%,0%);fill-opacity:1;" d="M 156.949219 130.875 L 163.699219 92.625 L 150.199219 92.625 Z M 156.949219 130.875 "/>
<path style="fill:none;stroke-width:1.2;stroke-linecap:butt;stroke-linejoin:miter;stroke:rgb(0%,0%,0%);stroke-opacity:1;stroke-miterlimit:10;" d="M 197.605469 120.445312 L 203.515625 102.257812 "/>
<path style="fill:none;stroke-width:1.2;stroke-linecap:butt;stroke-linejoin:miter;stroke:rgb(100%,0%,0%);stroke-opacity:1;stroke-miterlimit:10;" d="M 203.515625 102.257812 L 209.425781 84.066406 "/>
<path style="fill:none;stroke-width:1.2;stroke-linecap:butt;stroke-linejoin:miter;stroke:rgb(0%,0%,0%);stroke-opacity:1;stroke-miterlimit:10;" d="M 189.046875 117.664062 L 194.957031 99.476562 "/>
<path style="fill:none;stroke-width:1.2;stroke-linecap:butt;stroke-linejoin:miter;stroke:rgb(100%,0%,0%);stroke-opacity:1;stroke-miterlimit:10;" d="M 194.957031 99.476562 L 200.867188 81.285156 "/>
<path style="fill:none;stroke-width:1.2;stroke-linecap:butt;stroke-linejoin:miter;stroke:rgb(0%,0%,0%);stroke-opacity:1;stroke-miterlimit:10;" d="M 193.324219 119.054688 L 204.566406 134.527344 "/>
<path style="fill:none;stroke-width:1.2;stroke-linecap:butt;stroke-linejoin:miter;stroke:rgb(100%,0%,0%);stroke-opacity:1;stroke-miterlimit:10;" d="M 204.566406 134.527344 L 215.808594 150 "/>
<path style=" stroke:none;fill-rule:nonzero;fill:rgb(100%,100%,100%);fill-opacity:1;" d="M 199.144531 73.175781 L 212.144531 73.175781 L 212.144531 92.175781 L 199.144531 92.175781 Z M 199.144531 73.175781 "/>
<g style="fill:rgb(100%,0%,0%);fill-opacity:1;">
  <use xlink:href="#glyph0-1" x="199.144531" y="88.027344"/>
</g>
<path style="fill:none;stroke-width:1.2;stroke-linecap:butt;stroke-linejoin:miter;stroke:rgb(100%,0%,0%);stroke-opacity:1;stroke-miterlimit:10;" d="M 215.808594 150 L 204.566406 165.472656 "/>
<path style="fill:none;stroke-width:1.2;stroke-linecap:butt;stroke-linejoin:miter;stroke:rgb(0%,0%,0%);stroke-opacity:1;stroke-miterlimit:10;" d="M 204.566406 165.472656 L 193.324219 180.945312 "/>
<path style=" stroke:none;fill-rule:nonzero;fill:rgb(100%,100%,100%);fill-opacity:1;" d="M 209.808594 140.5 L 222.808594 140.5 L 222.808594 159.5 L 209.808594 159.5 Z M 209.808594 140.5 "/>
<g style="fill:rgb(100%,0%,0%);fill-opacity:1;">
  <use xlink:href="#glyph0-1" x="209.808594" y="155.351562"/>
</g>
<path style="fill:none;stroke-width:1.2;stroke-linecap:butt;stroke-linejoin:miter;stroke:rgb(0%,0%,0%);stroke-opacity:1;stroke-miterlimit:10;" d="M 189.046875 182.335938 L 194.957031 200.523438 "/>
<path style="fill:none;stroke-width:1.2;stroke-linecap:butt;stroke-linejoin:miter;stroke:rgb(100%,0%,0%);stroke-opacity:1;stroke-miterlimit:10;" d="M 194.957031 200.523438 L 200.867188 218.714844 "/>
<path style="fill:none;stroke-width:1.2;stroke-linecap:butt;stroke-linejoin:miter;stroke:rgb(0%,0%,0%);stroke-opacity:1;stroke-miterlimit:10;" d="M 197.605469 179.554688 L 203.515625 197.742188 "/>
<path style="fill:none;stroke-width:1.2;stroke-linecap:butt;stroke-linejoin:miter;stroke:rgb(100%,0%,0%);stroke-opacity:1;stroke-miterlimit:10;" d="M 203.515625 197.742188 L 209.425781 215.933594 "/>
<path style=" stroke:none;fill-rule:nonzero;fill:rgb(100%,100%,100%);fill-opacity:1;" d="M 199.144531 207.824219 L 212.144531 207.824219 L 212.144531 226.824219 L 199.144531 226.824219 Z M 199.144531 207.824219 "/>
<g style="fill:rgb(100%,0%,0%);fill-opacity:1;">
  <use xlink:href="#glyph0-1" x="199.144531" y="222.675781"/>
</g>
<path style=" stroke:none;fill-rule:nonzero;fill:rgb(100%,100%,100%);fill-opacity:1;" d="M 137.050781 140.5 L 150.050781 140.5 L 150.050781 159.5 L 137.050781 159.5 Z M 137.050781 140.5 "/>
<g style="fill:rgb(100%,0%,0%);fill-opacity:1;">
  <use xlink:href="#glyph0-1" x="137.050781" y="155.351562"/>
</g>
</g>
</svg>

<svg xmlns="http://www.w3.org/2000/svg" xmlns:xlink="http://www.w3.org/1999/xlink" width="300pt" height="300pt" viewBox="0 0 300 300"><defs><symbol overflow="visible"><path d="M.797 2.828v-14.11h8V2.83zm.906-.89h6.203v-12.33H1.703zm0 0"/></symbol><symbol overflow="visible" id="a"><path d="M6.313-10.594c-1.15 0-2.06.43-2.735 1.28-.68.857-1.015 2.017-1.015 3.486 0 1.47.335 2.633 1.015 3.484.676.856 1.586 1.28 2.735 1.28 1.144.002 2.05-.424 2.718-1.28.665-.85 1-2.015 1-3.484 0-1.47-.335-2.63-1-3.484-.667-.852-1.573-1.282-2.717-1.282zm0-1.28c1.632 0 2.94.546 3.92 1.64.978 1.093 1.47 2.562 1.47 4.406 0 1.844-.492 3.32-1.47 4.422-.98 1.093-2.288 1.64-3.92 1.64-1.65 0-2.96-.546-3.938-1.64-.98-1.102-1.47-2.578-1.47-4.422 0-1.844.49-3.313 1.47-4.406.977-1.094 2.29-1.64 3.938-1.64zm0 0"/></symbol></defs><g><path fill="#fff" d="M0 0h300v300H0z"/><path d="M156.95 169.125m-.524 2.953h1.043m-1.564 2.957h2.086m-2.61 2.953h3.13m-3.65 2.953h4.17m-4.692 2.958h5.215m-5.735 2.954h6.254m-6.777 2.953h7.3m-7.82 2.957h8.34m-8.863 2.953h9.387m-9.906 2.953h10.426m-10.95 2.953h11.474m-11.993 2.958h12.513m-13.004 2.797h13.5" stroke="#000" stroke-miterlimit="10" fill="none"/><path d="M156.95 169.125l-36.38 11.82M156.95 130.875v38.25M193.324 180.945l-36.375-11.82M120.57 180.945l-36.38-11.82" stroke-width="1.2" stroke="#000" stroke-miterlimit="10" fill="none"/><path d="M143.05 150l-11.238 15.473" stroke-width="1.2" stroke="#f00" stroke-miterlimit="10" fill="none"/><path d="M131.813 165.473l-11.243 15.472M84.19 169.125v-38.25M84.19 130.875l36.38-11.82M120.57 119.055l36.38 11.82M120.57 119.055l11.243 15.472" stroke-width="1.2" stroke="#000" stroke-miterlimit="10" fill="none"/><path d="M131.813 134.527L143.05 150" stroke-width="1.2" stroke="#f00" stroke-miterlimit="10" fill="none"/><path d="M156.95 130.875l36.374-11.82" stroke-width="1.2" stroke="#000" stroke-miterlimit="10" fill="none"/><path d="M156.95 130.875l6.75-38.25h-13.5zm0 0"/><path d="M197.605 120.445l5.91-18.187" stroke-width="1.2" stroke="#000" stroke-miterlimit="10" fill="none"/><path d="M203.516 102.258l5.91-18.192" stroke-width="1.2" stroke="#f00" stroke-miterlimit="10" fill="none"/><path d="M189.047 117.664l5.91-18.187" stroke-width="1.2" stroke="#000" stroke-miterlimit="10" fill="none"/><path d="M194.957 99.477l5.91-18.192" stroke-width="1.2" stroke="#f00" stroke-miterlimit="10" fill="none"/><path d="M193.324 119.055l11.242 15.472" stroke-width="1.2" stroke="#000" stroke-miterlimit="10" fill="none"/><path d="M204.566 134.527L215.81 150" stroke-width="1.2" stroke="#f00" stroke-miterlimit="10" fill="none"/><path d="M199.145 73.176h13v19h-13zm0 0" fill="#fff"/><use xlink:href="#a" x="199.145" y="88.027" fill="#f00"/><path d="M215.81 150l-11.244 15.473" stroke-width="1.2" stroke="#f00" stroke-miterlimit="10" fill="none"/><path d="M204.566 165.473l-11.242 15.472" stroke-width="1.2" stroke="#000" stroke-miterlimit="10" fill="none"/><path d="M209.81 140.5h13v19h-13zm0 0" fill="#fff"/><use xlink:href="#a" x="209.809" y="155.352" fill="#f00"/><path d="M189.047 182.336l5.91 18.187" stroke-width="1.2" stroke="#000" stroke-miterlimit="10" fill="none"/><path d="M194.957 200.523l5.91 18.192" stroke-width="1.2" stroke="#f00" stroke-miterlimit="10" fill="none"/><path d="M197.605 179.555l5.91 18.187" stroke-width="1.2" stroke="#000" stroke-miterlimit="10" fill="none"/><path d="M203.516 197.742l5.91 18.192" stroke-width="1.2" stroke="#f00" stroke-miterlimit="10" fill="none"/><path d="M199.145 207.824h13v19h-13zm0 0" fill="#fff"/><use xlink:href="#a" x="199.145" y="222.676" fill="#f00"/><path d="M137.05 140.5h13v19h-13zm0 0" fill="#fff"/><use xlink:href="#a" x="137.051" y="155.352" fill="#f00"/></g></svg>
